svg/color/ftb.svg

<?xml version="1.0" encoding="UTF-8" ?>
<!DOCTYPE svg PUBLIC "-//W3C//DTD SVG 1.1//EN" "http://www.w3.org/Graphics/SVG/1.1/DTD/svg11.dtd">
<svg width="250pt" height="250pt" viewBox="0 0 250 250" version="1.1" xmlns="http://www.w3.org/2000/svg">
<g id="#ffffffff">
<path fill="#ffffff" opacity="1.00" d=" M 0.00 0.00 L 250.00 0.00 L 250.00 250.00 L 0.00 250.00 L 0.00 0.00 M 121.44 5.39 C 89.18 23.79 57.12 42.55 24.89 60.99 C 21.90 62.51 19.42 65.41 19.61 68.94 C 19.53 105.64 19.65 142.34 19.56 179.03 C 19.54 181.61 19.61 184.52 21.55 186.49 C 23.93 188.90 27.11 190.26 29.98 191.99 C 58.54 208.44 87.10 224.88 115.60 241.44 C 119.08 243.37 122.69 246.35 126.94 245.34 C 130.58 244.17 133.68 241.83 137.00 240.00 C 165.08 223.76 193.18 207.54 221.28 191.35 C 223.97 189.77 226.96 188.47 228.99 186.02 C 230.65 184.09 230.50 181.40 230.56 179.02 C 230.48 142.33 230.59 105.64 230.51 68.95 C 230.78 65.60 228.49 62.83 225.72 61.27 C 194.50 43.20 163.17 25.29 132.00 7.11 C 128.92 5.14 124.95 3.38 121.44 5.39 Z" />
<path fill="#ffffff" opacity="1.00" d=" M 138.19 78.61 C 142.85 75.73 147.65 73.08 152.25 70.11 C 153.56 71.73 154.71 73.47 155.74 75.28 C 165.84 92.59 176.38 109.66 186.35 127.05 C 181.66 130.15 176.81 133.01 171.88 135.70 C 161.83 119.22 152.17 102.51 142.18 85.98 C 140.69 83.62 139.30 81.18 138.19 78.61 Z" />
<path fill="#ffffff" opacity="1.00" d=" M 164.13 81.33 C 168.66 78.51 173.13 75.52 177.94 73.20 C 179.50 73.37 179.92 75.09 180.73 76.17 C 185.92 85.18 191.48 93.99 196.57 103.07 C 191.74 105.99 186.97 109.02 181.96 111.63 C 176.04 101.52 169.73 91.62 164.13 81.33 Z" />
<path fill="#ffffff" opacity="1.00" d=" M 99.94 130.02 C 115.71 120.83 131.26 111.24 147.08 102.15 C 150.13 106.77 152.77 111.65 155.76 116.32 C 153.09 118.60 149.93 120.14 146.95 121.95 C 135.50 128.79 124.02 135.57 112.57 142.41 C 109.36 144.28 106.31 146.49 102.81 147.80 C 100.10 143.06 97.30 138.37 94.44 133.72 C 96.19 132.37 98.01 131.11 99.94 130.02 Z" />
<path fill="#ffffff" opacity="1.00" d=" M 64.08 122.57 C 68.84 119.93 73.44 117.01 78.18 114.33 C 88.79 131.33 98.65 148.79 109.11 165.88 C 110.20 167.65 111.16 169.51 111.91 171.45 C 107.17 174.35 102.46 177.35 97.50 179.88 C 86.78 161.86 76.10 143.80 65.32 125.82 C 64.74 124.80 64.41 123.68 64.08 122.57 Z" />
<path fill="#ffffff" opacity="1.00" d=" M 53.72 146.97 C 58.46 143.99 63.25 141.11 68.13 138.39 C 73.70 147.36 78.90 156.56 84.45 165.55 C 84.90 166.66 86.37 167.98 85.34 169.18 C 80.94 172.11 76.24 174.56 71.81 177.45 C 65.55 167.43 59.41 157.31 53.72 146.97 Z" />
</g>
<g id="#00ffffff">
<path fill="#00ffff" opacity="1.00" d=" M 121.44 5.39 C 124.95 3.38 128.92 5.14 132.00 7.11 C 163.17 25.29 194.50 43.20 225.72 61.27 C 228.49 62.83 230.78 65.60 230.51 68.95 C 230.59 105.64 230.48 142.33 230.56 179.02 C 230.50 181.40 230.65 184.09 228.99 186.02 C 226.96 188.47 223.97 189.77 221.28 191.35 C 193.18 207.54 165.08 223.76 137.00 240.00 C 133.68 241.83 130.58 244.17 126.94 245.34 C 122.69 246.35 119.08 243.37 115.60 241.44 C 87.10 224.88 58.54 208.44 29.98 191.99 C 27.11 190.26 23.93 188.90 21.55 186.49 C 19.61 184.52 19.54 181.61 19.56 179.03 C 19.65 142.34 19.53 105.64 19.61 68.94 C 19.42 65.41 21.90 62.51 24.89 60.99 C 57.12 42.55 89.18 23.79 121.44 5.39 M 41.69 68.51 C 39.23 69.85 36.83 71.31 34.57 72.96 C 34.47 107.66 34.47 142.37 34.57 177.07 C 36.79 178.70 39.13 180.16 41.54 181.49 C 69.41 197.44 97.12 213.67 125.01 229.58 C 153.19 213.69 181.05 197.23 209.14 181.20 C 211.35 179.96 213.49 178.59 215.55 177.12 C 215.65 142.39 215.64 107.66 215.55 72.94 C 213.48 71.45 211.34 70.07 209.11 68.83 C 181.02 52.83 153.19 36.35 125.03 20.48 C 97.18 36.38 69.50 52.55 41.69 68.51 Z" />
</g>
<g id="#0000ffff">
<path fill="#0000ff" opacity="1.00" d=" M 41.69 68.51 C 69.50 52.55 97.18 36.38 125.03 20.48 C 153.19 36.35 181.02 52.83 209.11 68.83 C 211.34 70.07 213.48 71.45 215.55 72.94 C 215.64 107.66 215.65 142.39 215.55 177.12 C 213.49 178.59 211.35 179.96 209.14 181.20 C 181.05 197.23 153.19 213.69 125.01 229.58 C 97.12 213.67 69.41 197.44 41.54 181.49 C 39.13 180.16 36.79 178.70 34.57 177.07 C 34.47 142.37 34.47 107.66 34.57 72.96 C 36.83 71.31 39.23 69.85 41.69 68.51 M 138.19 78.61 C 139.30 81.18 140.69 83.62 142.18 85.98 C 152.17 102.51 161.83 119.22 171.88 135.70 C 176.81 133.01 181.66 130.15 186.35 127.05 C 176.38 109.66 165.84 92.59 155.74 75.28 C 154.71 73.47 153.56 71.73 152.25 70.11 C 147.65 73.08 142.85 75.73 138.19 78.61 M 164.13 81.33 C 169.73 91.62 176.04 101.52 181.96 111.63 C 186.97 109.02 191.74 105.99 196.57 103.07 C 191.48 93.99 185.92 85.18 180.73 76.17 C 179.92 75.09 179.50 73.37 177.94 73.20 C 173.13 75.52 168.66 78.51 164.13 81.33 M 99.94 130.02 C 98.01 131.11 96.19 132.37 94.44 133.72 C 97.30 138.37 100.10 143.06 102.81 147.80 C 106.31 146.49 109.36 144.28 112.57 142.41 C 124.02 135.57 135.50 128.79 146.95 121.95 C 149.93 120.14 153.09 118.60 155.76 116.32 C 152.77 111.65 150.13 106.77 147.08 102.15 C 131.26 111.24 115.71 120.83 99.94 130.02 M 64.08 122.57 C 64.41 123.68 64.74 124.80 65.32 125.82 C 76.10 143.80 86.78 161.86 97.50 179.88 C 102.46 177.35 107.17 174.35 111.91 171.45 C 111.16 169.51 110.20 167.65 109.11 165.88 C 98.65 148.79 88.79 131.33 78.18 114.33 C 73.44 117.01 68.84 119.93 64.08 122.57 M 53.72 146.97 C 59.41 157.31 65.55 167.43 71.81 177.45 C 76.24 174.56 80.94 172.11 85.34 169.18 C 86.37 167.98 84.90 166.66 84.45 165.55 C 78.90 156.56 73.70 147.36 68.13 138.39 C 63.25 141.11 58.46 143.99 53.72 146.97 Z" />
</g>
</svg>

<?xml version="1.0" encoding="utf-8"?>
<!-- Generator: Adobe Illustrator 26.0.3, SVG Export Plug-In . SVG Version: 6.00 Build 0)  -->
<svg version="1.1" id="Layer_1" xmlns="http://www.w3.org/2000/svg" xmlns:xlink="http://www.w3.org/1999/xlink" x="0px" y="0px"
	 viewBox="0 0 250 250" style="enable-background:new 0 0 250 250;" xml:space="preserve">
<style type="text/css">
	.st0{fill:#FFFFFF;}
	.st1{fill:#00FFFF;}
	.st2{fill:#0000FF;}
</style>
<g id="_x23_ffffffff">
	<path class="st0" d="M138.2,78.6c4.7-2.9,9.5-5.5,14.1-8.5c1.3,1.6,2.5,3.4,3.5,5.2c10.1,17.3,20.6,34.4,30.6,51.8
		c-4.7,3.1-9.5,6-14.5,8.6c-10.1-16.5-19.7-33.2-29.7-49.7C140.7,83.6,139.3,81.2,138.2,78.6z"/>
	<path class="st0" d="M164.1,81.3c4.5-2.8,9-5.8,13.8-8.1c1.6,0.2,2,1.9,2.8,3c5.2,9,10.8,17.8,15.8,26.9c-4.8,2.9-9.6,5.9-14.6,8.6
		C176,101.5,169.7,91.6,164.1,81.3z"/>
	<path class="st0" d="M99.9,130c15.8-9.2,31.3-18.8,47.1-27.9c3.1,4.6,5.7,9.5,8.7,14.2c-2.7,2.3-5.8,3.8-8.8,5.6
		c-11.4,6.8-22.9,13.6-34.4,20.5c-3.2,1.9-6.3,4.1-9.8,5.4c-2.7-4.7-5.5-9.4-8.4-14.1C96.2,132.4,98,131.1,99.9,130z"/>
	<path class="st0" d="M64.1,122.6c4.8-2.6,9.4-5.6,14.1-8.2c10.6,17,20.5,34.5,30.9,51.6c1.1,1.8,2.1,3.6,2.8,5.6
		c-4.7,2.9-9.5,5.9-14.4,8.4c-10.7-18-21.4-36.1-32.2-54.1C64.7,124.8,64.4,123.7,64.1,122.6z"/>
	<path class="st0" d="M53.7,147c4.7-3,9.5-5.9,14.4-8.6c5.6,9,10.8,18.2,16.3,27.2c0.5,1.1,1.9,2.4,0.9,3.6
		c-4.4,2.9-9.1,5.4-13.5,8.3C65.6,167.4,59.4,157.3,53.7,147z"/>
</g>
<g id="_x23_00ffffff">
	<path class="st1" d="M121.4,5.4c3.5-2,7.5-0.2,10.6,1.7c31.2,18.2,62.5,36.1,93.7,54.2c2.8,1.6,5.1,4.3,4.8,7.7
		c0.1,36.7,0,73.4,0.1,110.1c-0.1,2.4,0.1,5.1-1.6,7c-2,2.4-5,3.8-7.7,5.3c-28.1,16.2-56.2,32.4-84.3,48.6
		c-3.3,1.8-6.4,4.2-10.1,5.3c-4.2,1-7.9-2-11.3-3.9c-28.5-16.6-57.1-33-85.6-49.4c-2.9-1.7-6-3.1-8.4-5.5c-1.9-2-2-4.9-2-7.5
		c0.1-36.7,0-73.4,0.1-110.1c-0.2-3.5,2.3-6.4,5.3-8C57.1,42.5,89.2,23.8,121.4,5.4 M41.7,68.5c-2.5,1.3-4.9,2.8-7.1,4.4
		c-0.1,34.7-0.1,69.4,0,104.1c2.2,1.6,4.6,3.1,7,4.4c27.9,15.9,55.6,32.2,83.5,48.1c28.2-15.9,56-32.4,84.1-48.4
		c2.2-1.2,4.4-2.6,6.4-4.1c0.1-34.7,0.1-69.5,0-104.2c-2.1-1.5-4.2-2.9-6.4-4.1c-28.1-16-55.9-32.5-84.1-48.4
		C97.2,36.4,69.5,52.5,41.7,68.5z"/>
</g>
<g id="_x23_0000ffff">
	<path class="st2" d="M41.7,68.5c27.8-16,55.5-32.1,83.3-48c28.2,15.9,56,32.4,84.1,48.4c2.2,1.2,4.4,2.6,6.4,4.1
		c0.1,34.7,0.1,69.4,0,104.2c-2.1,1.5-4.2,2.8-6.4,4.1c-28.1,16-55.9,32.5-84.1,48.4c-27.9-15.9-55.6-32.1-83.5-48.1
		c-2.4-1.3-4.8-2.8-7-4.4c-0.1-34.7-0.1-69.4,0-104.1C36.8,71.3,39.2,69.8,41.7,68.5 M138.2,78.6c1.1,2.6,2.5,5,4,7.4
		c10,16.5,19.7,33.2,29.7,49.7c4.9-2.7,9.8-5.6,14.5-8.6c-10-17.4-20.5-34.5-30.6-51.8c-1-1.8-2.2-3.5-3.5-5.2
		C147.6,73.1,142.9,75.7,138.2,78.6 M164.1,81.3c5.6,10.3,11.9,20.2,17.8,30.3c5-2.6,9.8-5.6,14.6-8.6c-5.1-9.1-10.7-17.9-15.8-26.9
		c-0.8-1.1-1.2-2.8-2.8-3C173.1,75.5,168.7,78.5,164.1,81.3 M99.9,130c-1.9,1.1-3.8,2.3-5.5,3.7c2.9,4.6,5.7,9.3,8.4,14.1
		c3.5-1.3,6.6-3.5,9.8-5.4c11.4-6.8,22.9-13.6,34.4-20.5c3-1.8,6.1-3.3,8.8-5.6c-3-4.7-5.6-9.6-8.7-14.2
		C131.3,111.2,115.7,120.8,99.9,130 M64.1,122.6c0.3,1.1,0.7,2.2,1.2,3.2c10.8,18,21.5,36,32.2,54.1c5-2.5,9.7-5.5,14.4-8.4
		c-0.8-1.9-1.7-3.8-2.8-5.6c-10.5-17.1-20.3-34.6-30.9-51.6C73.4,117,68.8,119.9,64.1,122.6 M53.7,147c5.7,10.3,11.8,20.5,18.1,30.5
		c4.4-2.9,9.1-5.3,13.5-8.3c1-1.2-0.4-2.5-0.9-3.6c-5.5-9-10.8-18.2-16.3-27.2C63.2,141.1,58.5,144,53.7,147z"/>
</g>
</svg>
